icons/svg/office/telecommunication.svg

<?xml version="1.0" encoding="UTF-8" standalone="no"?>
<!-- Created with Inkscape (http://www.inkscape.org/) -->

<svg
   xmlns:dc="http://purl.org/dc/elements/1.1/"
   xmlns:cc="http://creativecommons.org/ns#"
   xmlns:rdf="http://www.w3.org/1999/02/22-rdf-syntax-ns#"
   xmlns:svg="http://www.w3.org/2000/svg"
   xmlns="http://www.w3.org/2000/svg"
   xmlns:sodipodi="http://sodipodi.sourceforge.net/DTD/sodipodi-0.dtd"
   xmlns:inkscape="http://www.inkscape.org/namespaces/inkscape"
   version="1.0"
   width="580"
   height="580"
   id="svg2"
   sodipodi:version="0.32"
   inkscape:version="0.91 r"
   sodipodi:docname="telecommunication.svg"
   inkscape:output_extension="org.inkscape.output.svg.inkscape">
  <metadata
     id="metadata10">
    <rdf:RDF>
      <cc:Work
         rdf:about="">
        <dc:format>image/svg+xml</dc:format>
        <dc:type
           rdf:resource="http://purl.org/dc/dcmitype/StillImage" />
        <cc:license
           rdf:resource="http://web.resource.org/cc/PublicDomain" />
        <dc:language>en</dc:language>
        <dc:title></dc:title>
      </cc:Work>
    </rdf:RDF>
  </metadata>
  <sodipodi:namedview
     inkscape:window-height="1004"
     inkscape:window-width="1920"
     inkscape:pageshadow="2"
     inkscape:pageopacity="0.0"
     guidetolerance="10.0"
     gridtolerance="10.0"
     objecttolerance="10.0"
     borderopacity="1.0"
     bordercolor="#666666"
     pagecolor="#ffffff"
     id="base"
     showgrid="false"
     inkscape:zoom="0.25"
     inkscape:cx="1207.2157"
     inkscape:cy="500.55782"
     inkscape:window-x="1680"
     inkscape:window-y="0"
     inkscape:current-layer="svg2"
     inkscape:window-maximized="1" />
  <defs
     id="defs4">
    <inkscape:perspective
       sodipodi:type="inkscape:persp3d"
       inkscape:vp_x="0 : 290 : 1"
       inkscape:vp_y="0 : 1000 : 0"
       inkscape:vp_z="580 : 290 : 1"
       inkscape:persp3d-origin="290 : 193.33333 : 1"
       id="perspective12" />
  </defs>
  <g
     id="g1327">
    <path
       d="M 66.275,1.768 C 24.94,1.768 1.704,23.139 1.704,66.804 L 1.704,516.927 C 1.704,557.771 22.598,579.156 63.896,579.156 L 515.92,579.156 C 557.227,579.156 578.149,558.84 578.149,516.927 L 578.149,66.804 C 578.149,24.203 557.227,1.768 514.627,1.768 C 514.624,1.768 66.133,1.625 66.275,1.768 z"
       style="fill:#111111;stroke:#eeeeee;stroke-width:3.40799999"
       id="path1329" />
  </g>
  <path
     inkscape:connector-curvature="0"
     style="color:#000000;clip-rule:nonzero;display:inline;overflow:visible;visibility:visible;opacity:1;isolation:auto;mix-blend-mode:normal;color-interpolation:sRGB;color-interpolation-filters:linearRGB;solid-color:#000000;solid-opacity:1;fill:#ffffff;fill-opacity:1;fill-rule:nonzero;stroke:none;stroke-width:25;stroke-linecap:round;stroke-linejoin:round;stroke-miterlimit:4;stroke-dasharray:none;stroke-dashoffset:0;stroke-opacity:1;marker:none;color-rendering:auto;image-rendering:auto;shape-rendering:auto;text-rendering:auto;enable-background:accumulate"
     d="m 143.29087,308.48637 c -15.16319,0 -28.17493,9.21233 -33.74414,22.34765 l -2.89258,35.31446 0,38.75586 c 0,4.71422 0.89771,9.21518 2.51954,13.35546 l -79.132816,0 0,26.78907 0,10.71679 0,92.875 24.779038,0 0,-92.875 254.074738,0 0,92.875 24.77513,0 0,-92.875 0.002,0 0,-37.50586 -79.13281,0 c 1.62182,-4.14028 2.51953,-8.64126 2.51953,-13.35546 l 0,-38.75391 -2.89258,-35.31836 c -5.5692,-13.13175 -18.58094,-22.3457 -33.74414,-22.3457 l -77.13086,0 z m -7.71289,49.17382 8.67774,0 0,60.59961 -8.67774,0 z m 83.87891,0 8.67773,0 0,60.59961 -8.67773,0 z"
     id="path4178"
     sodipodi:nodetypes="sccsccccccccccccccsccscscccccccccc" />
  <path
     inkscape:connector-curvature="0"
     style="color:#000000;clip-rule:nonzero;display:inline;overflow:visible;visibility:visible;opacity:1;isolation:auto;mix-blend-mode:normal;color-interpolation:sRGB;color-interpolation-filters:linearRGB;solid-color:#000000;solid-opacity:1;fill:#ffffff;fill-opacity:1;fill-rule:nonzero;stroke:none;stroke-width:25;stroke-linecap:round;stroke-linejoin:round;stroke-miterlimit:4;stroke-dasharray:none;stroke-dashoffset:0;stroke-opacity:1;marker:none;color-rendering:auto;image-rendering:auto;shape-rendering:auto;text-rendering:auto;enable-background:accumulate"
     d="m 181.85728,203.24223 c -24.76076,0 -44.83397,20.07127 -44.83399,44.83203 0,24.76075 20.07323,44.83203 44.83399,44.83203 24.76076,0 44.83203,-20.07128 44.83203,-44.83203 0,-24.76076 -20.07127,-44.83203 -44.83203,-44.83203 z"
     id="path4176" />
  <path
     inkscape:connector-curvature="0"
     style="color:#000000;line-height:normal;font-family:'Bitstream Vera Sans';-inkscape-font-specification:'Bitstream Vera Sans';text-indent:0;text-align:start;text-transform:none;block-progression:tb;overflow:visible;fill:#ffffff;fill-opacity:1;stroke:none;enable-background:accumulate"
     d="m 335.6577,103.81677 c 46.67991,-49.369704 107.56109,-75.635184 170.58699,-78.547574 12.30356,-0.53332 22.70792,9.01246 23.23364,21.31633 0.52573,12.30387 -9.02647,22.70235 -21.33067,23.22047 -52.23464,2.41376 -101.24244,23.42223 -140.15848,64.580704 -38.91605,41.1585 -57.14889,91.26522 -56.63555,143.55307 0.17073,12.31353 -9.67671,22.43209 -21.99032,22.59576 -12.31362,0.16369 -22.42655,-9.68952 -22.58319,-22.00324 -0.6194,-63.09013 22.1978,-125.34593 68.87758,-174.71552 z m 53.88577,50.94992 c 33.76758,-35.71334 79.0535,-54.0171 124.35324,-55.285664 12.30456,-0.34602 22.55945,9.349054 22.90404,21.653644 0.34458,12.30458 -9.35168,22.55837 -21.65631,22.90153 -34.37526,0.96257 -67.93506,14.50615 -93.2695,41.30042 -25.33434,26.79417 -36.97851,61.05932 -36.01589,95.43471 0.33916,12.29999 -9.35415,22.54744 -21.65399,22.89188 -12.29983,0.34444 -22.55144,-9.34445 -22.90117,-21.64415 -1.26851,-45.29984 14.47213,-91.53915 48.23958,-127.25237 z m 53.88578,50.94989 c 20.76209,-21.95845 49.34504,-33.55405 77.76433,-32.99736 12.32655,0.18762 22.16397,10.33799 21.9656,22.66437 -0.19837,12.32636 -10.35731,22.15494 -22.68351,21.94582 -15.67039,-0.30697 -32.86911,6.42867 -44.71497,18.95712 -11.84584,12.52844 -17.60841,30.07716 -16.42494,45.70581 0.89612,12.29366 -8.348,22.98404 -20.64226,23.87183 -12.29425,0.88778 -22.97838,-8.36357 -23.85784,-20.65843 -2.14628,-28.34362 7.8315,-57.5307 28.59359,-79.48916 z m 48.51197,45.86891 c 13.96485,-14.76951 37.61964,-15.43184 52.38906,-1.46711 14.7694,13.96471 15.43193,37.61951 1.46712,52.38904 -13.9647,14.76936 -37.61964,15.43184 -52.38906,1.46711 -14.76939,-13.96473 -15.43179,-37.61968 -1.46712,-52.38904 z"
     overflow="visible"
     id="path4"
     sodipodi:nodetypes="scscscscsscscscscsscscscscssssss" />
</svg>

<svg width="580" height="580" viewBox="0 0 580 580" fill="none" xmlns="http://www.w3.org/2000/svg">
<g clip-path="url(#clip0)">
<path d="M66.275 1.7679C24.94 1.7679 1.704 23.1389 1.704 66.8039V516.927C1.704 557.771 22.598 579.156 63.896 579.156H515.92C557.227 579.156 578.149 558.84 578.149 516.927V66.8039C578.149 24.2029 557.227 1.7679 514.627 1.7679C514.624 1.7679 66.133 1.6249 66.275 1.7679Z" fill="#111111" stroke="#EEEEEE" stroke-width="3.408"/>
<path d="M143.291 308.486C128.128 308.486 115.116 317.699 109.547 330.834L106.654 366.148V404.904C106.654 409.619 107.552 414.119 109.174 418.26H30.0409V445.049V455.766V548.641H54.8199V455.766H308.895V548.641H333.67V455.766H333.672V418.26H254.539C256.161 414.119 257.058 409.618 257.058 404.904V366.15L254.166 330.832C248.597 317.7 235.585 308.486 220.422 308.486H143.291H143.291ZM135.578 357.66H144.256V418.26H135.578V357.66ZM219.457 357.66H228.135V418.26H219.457V357.66Z" fill="white"/>
<path d="M181.857 203.242C157.097 203.242 137.023 223.313 137.023 248.074C137.023 272.835 157.097 292.906 181.857 292.906C206.618 292.906 226.689 272.835 226.689 248.074C226.689 223.313 206.618 203.242 181.857 203.242Z" fill="white"/>
<path d="M335.658 103.817C382.338 54.447 443.219 28.1815 506.245 25.2691C518.548 24.7358 528.953 34.2816 529.478 46.5854C530.004 58.8893 520.452 69.2878 508.148 69.8059C455.913 72.2197 406.905 93.2281 367.989 134.387C329.073 175.545 310.84 225.652 311.354 277.94C311.524 290.253 301.677 300.372 289.363 300.535C277.05 300.699 266.937 290.846 266.78 278.532C266.161 215.442 288.978 153.186 335.658 103.817V103.817ZM389.543 154.767C423.311 119.053 468.597 100.749 513.897 99.4809C526.201 99.1349 536.456 108.83 536.801 121.135C537.145 133.439 527.449 143.693 515.144 144.036C480.769 144.999 447.209 158.542 421.875 185.337C396.541 212.131 384.896 246.396 385.859 280.771C386.198 293.071 376.505 303.319 364.205 303.663C351.905 304.008 341.654 294.319 341.304 282.019C340.035 236.719 355.776 190.48 389.543 154.767V154.767ZM443.429 205.716C464.191 183.758 492.774 172.162 521.194 172.719C533.52 172.907 543.358 183.057 543.159 195.383C542.961 207.71 532.802 217.538 520.476 217.329C504.805 217.022 487.607 223.758 475.761 236.286C463.915 248.815 458.152 266.364 459.336 281.992C460.232 294.286 450.988 304.976 438.694 305.864C426.399 306.752 415.715 297.501 414.836 285.206C412.689 256.862 422.667 227.675 443.429 205.716V205.716ZM491.941 251.585C505.906 236.816 529.561 236.154 544.33 250.118C559.1 264.083 559.762 287.738 545.797 302.507C531.833 317.277 508.178 317.939 493.408 303.974C478.639 290.01 477.977 266.355 491.941 251.585V251.585Z" fill="white"/>
</g>
<defs>
<clipPath id="clip0">
<path d="M0 0H580V580H0V0Z" fill="white"/>
</clipPath>
</defs>
</svg>
